X:2270
L:1/8
M:4/4
K:C
[M:6/8][K:Amin]!p! add[Q:1/8=320]!>!g^f | eAA ^fAA | g^fg age | dBG GFG | BAG Bcd | eAA ^fAA | 
 g^fg age | dBd gdB | ABA A :| z d | e^fg a2 a | aba age | de^f g2 g | gba ged | e^fg a2 a | 
 aba age | dBB gBB | ABA A :|

